usr/share/icons/biglinux-icons-material/scalable/apps/electron.svg

<?xml version="1.0" encoding="UTF-8" standalone="no"?>
<svg
   width="24"
   height="24"
   viewBox="0 0 24 24"
   fill="none"
   version="1.1"
   id="svg154"
   sodipodi:docname="electron.svg"
   inkscape:version="1.2.2 (b0a8486541, 2022-12-01)"
   xmlns:inkscape="http://www.inkscape.org/namespaces/inkscape"
   xmlns:sodipodi="http://sodipodi.sourceforge.net/DTD/sodipodi-0.dtd"
   xmlns:xlink="http://www.w3.org/1999/xlink"
   xmlns="http://www.w3.org/2000/svg"
   xmlns:svg="http://www.w3.org/2000/svg"
   xmlns:sketch="http://www.bohemiancoding.com/sketch/ns">
  <sodipodi:namedview
     id="namedview156"
     pagecolor="#ffffff"
     bordercolor="#000000"
     borderopacity="1"
     inkscape:showpageshadow="0"
     inkscape:pageopacity="1"
     inkscape:pagecheckerboard="false"
     inkscape:deskcolor="#ffffff"
     showgrid="true"
     inkscape:zoom="22.627417"
     inkscape:cx="6.7617086"
     inkscape:cy="12.484854"
     inkscape:window-width="1920"
     inkscape:window-height="1052"
     inkscape:window-x="0"
     inkscape:window-y="0"
     inkscape:window-maximized="1"
     inkscape:current-layer="svg154"
     showguides="true"
     guidecolor="#ff0000"
     guideopacity="1"
     inkscape:lockguides="true"
     showborder="true"
     borderlayer="true">
    <inkscape:grid
       type="xygrid"
       id="grid356"
       color="#000000"
       opacity="0.10196078"
       empcolor="#000000"
       empopacity="0.10196078"
       snapvisiblegridlinesonly="true"
       enabled="true"
       visible="true"
       dotted="false" />
    <sodipodi:guide
       position="4,12"
       orientation="-1,0"
       id="guide764"
       inkscape:locked="true"
       inkscape:label=""
       inkscape:color="rgb(255,0,0)" />
    <sodipodi:guide
       position="5,12"
       orientation="1,0"
       id="guide2218"
       inkscape:locked="true" />
    <sodipodi:guide
       position="12,20"
       orientation="0,1"
       id="guide2220"
       inkscape:locked="true"
       inkscape:label=""
       inkscape:color="rgb(255,0,0)" />
    <sodipodi:guide
       position="12,5"
       orientation="0,-1"
       id="guide2222"
       inkscape:locked="true" />
    <sodipodi:guide
       position="12,4"
       orientation="0,-1"
       id="guide2224"
       inkscape:locked="true" />
    <sodipodi:guide
       position="19,12"
       orientation="1,0"
       id="guide2226"
       inkscape:locked="true" />
    <sodipodi:guide
       position="20,12"
       orientation="1,0"
       id="guide2228"
       inkscape:locked="true" />
    <sodipodi:guide
       position="12,19"
       orientation="0,-1"
       id="guide2230"
       inkscape:locked="true" />
    <sodipodi:guide
       position="12,12"
       orientation="1,0"
       id="guide765"
       inkscape:locked="true" />
    <sodipodi:guide
       position="12,12"
       orientation="0,-1"
       id="guide767"
       inkscape:locked="true" />
    <sodipodi:guide
       position="12,12"
       orientation="0.70710678,0.70710678"
       id="guide2266"
       inkscape:locked="true"
       inkscape:label=""
       inkscape:color="rgb(255,0,0)" />
    <sodipodi:guide
       position="12,12"
       orientation="-0.70710678,0.70710678"
       id="guide2994"
       inkscape:locked="true"
       inkscape:label=""
       inkscape:color="rgb(255,0,0)" />
  </sodipodi:namedview>
  <defs
     id="defs152">
    <radialGradient
       id="radialGradient66380"
       cx="0"
       cy="0"
       r="1"
       gradientUnits="userSpaceOnUse"
       gradientTransform="translate(12 1) rotate(90) scale(22)">
      <stop
         stop-color="#8FC8FF"
         id="stop66376"
         offset="0"
         style="stop-color:#373a4b;stop-opacity:1;" />
      <stop
         offset="1"
         stop-color="#0056A8"
         id="stop66378"
         style="stop-color:#2b2e3a;stop-opacity:1;" />
    </radialGradient>
    <radialGradient
       id="paint0_radial_29_23"
       cx="0"
       cy="0"
       r="1"
       gradientUnits="userSpaceOnUse"
       gradientTransform="translate(12 1) rotate(90) scale(22)">
      <stop
         stop-color="#8FC8FF"
         id="stop147"
         offset="0"
         style="stop-color:#f6f6f6;stop-opacity:1;" />
      <stop
         offset="1"
         stop-color="#0056A8"
         id="stop149"
         style="stop-color:#cfcfcf;stop-opacity:1;" />
    </radialGradient>
    <radialGradient
       inkscape:collect="always"
       xlink:href="#radialGradient66380"
       id="radialGradient1161"
       gradientUnits="userSpaceOnUse"
       gradientTransform="matrix(3.9045581e-8,90.059469,-90.006811,0,-107.36954,-11.19048)"
       cx="0.17911513"
       cy="-1.7483425"
       r="1"
       fx="0.17911513"
       fy="-1.7483425" />
    <radialGradient
       id="paint0_radial_10_2"
       cx="0"
       cy="0"
       r="1"
       gradientUnits="userSpaceOnUse"
       gradientTransform="matrix(-10.999959,21.999967,-21.999967,-10.999959,17.5,1)"
       xlink:href="#paint0_radial_29_23">
      <stop
         stop-color="#777777"
         id="stop2847" />
      <stop
         offset="1"
         stop-color="#222222"
         id="stop2849" />
    </radialGradient>
  </defs>
  <path
     d="M 50,5 C 9.0909092,5 5,25.454546 5,50 5,82.727274 17.272728,95 50,95 82.727274,95 95,82.727274 95,50 95,25.454546 90.909093,5 50,5 Z"
     sketch:type="MSShapeGroup"
     id="path6"
     style="font-variation-settings:normal;display:inline;opacity:1;vector-effect:none;fill:url(#radialGradient1161);fill-opacity:1;stroke-width:4.56656;stroke-linecap:butt;stroke-linejoin:miter;stroke-miterlimit:4;stroke-dasharray:none;stroke-dashoffset:0;stroke-opacity:1;-inkscape-stroke:none;stop-color:#000000;stop-opacity:1"
     sodipodi:nodetypes="sssss"
     inkscape:label="Shape"
     transform="matrix(0.24444444,0,0,0.24444444,-0.22222222,-0.22222222)"
     sodipodi:insensitive="true" />
  <path
     d="m 12.000766,5.0000012 a 0.99956087,0.99956087 0 0 0 -1.001097,1.0010969 0.99956087,0.99956087 0 0 0 1.001097,0.9980251 0.99956087,0.99956087 0 0 0 0.913578,-0.5972798 c 1.200701,0.8567656 1.799518,2.522702 1.996052,4.2915086 0.214959,1.903926 -0.03992,3.906119 -0.397675,4.977845 a 0.25078341,0.25078341 0 0 0 0.475981,0.158148 c 0.391533,-1.177671 0.641807,-3.207501 0.419171,-5.192802 C 15.191378,8.7019083 14.517327,6.7887703 12.988043,5.8552328 A 0.99956087,0.99956087 0 0 0 12.000766,5.0015371 Z m 0,0.5005495 a 0.50054816,0.50054816 0 0 1 0.499014,0.4652326 0.25027407,0.25027407 0 0 0 -0.0016,0.061417 0.50054816,0.50054816 0 0 1 -0.497472,0.4729114 0.50054816,0.50054816 0 0 1 -0.500548,-0.5005495 0.50054816,0.50054816 0 0 1 0.500548,-0.4990114 z m 3.669663,2.2340413 a 3.5928916,3.5928916 0 0 0 -0.445272,0.015354 0.25078928,0.25078928 0 1 0 0.05068,0.4990115 c 1.044088,-0.107478 1.853257,0.2994089 2.149594,1.0287337 0.2948,0.7277908 0.0998,1.8747538 -1.116254,3.3119098 a 0.25027407,0.25027407 0 1 0 0.38232,0.322439 C 17.975108,11.395042 18.279123,10.053081 17.889124,9.0888352 17.545189,8.2443517 16.685353,7.7591585 15.668902,7.733056 Z M 8.6919283,7.7499463 C 7.4743362,7.7714467 6.6421371,8.1491614 6.1861166,8.7664016 5.5796247,9.5893885 5.722418,10.747099 6.3903274,11.786581 A 0.25027407,0.25027407 0 0 0 6.811035,11.516347 C 6.2152893,10.590485 6.1385175,9.6738383 6.5883979,9.0627384 7.0398123,8.4516403 8.0915785,8.0555012 9.9617235,8.3472319 A 0.25027407,0.25027407 0 1 0 10.038495,7.8528246 7.8705823,7.8705823 0 0 0 8.6919275,7.7514866 Z m 5.0239087,0.148936 a 0.25027407,0.25027407 0 0 0 -0.03071,0 0.25027407,0.25027407 0 0 0 -0.04146,0.0092 13.299841,13.299841 0 0 0 -5.3402049,2.6578187 C 6.8294594,11.794249 5.7853714,13.29436 5.7546627,14.835925 a 0.99956087,0.99956087 0 0 0 -0.2548798,0.664837 0.99956087,0.99956087 0 0 0 1.0010949,0.999562 0.99956087,0.99956087 0 0 0 0.998027,-0.999562 0.99956087,0.99956087 0 0 0 -0.998027,-1.001096 0.99956087,0.99956087 0 0 0 -0.218029,0.02457 c 0.1550776,-1.222196 1.044088,-2.495063 2.3399859,-3.576 A 12.865316,12.865316 0 0 1 13.757291,8.3932872 0.25027407,0.25027407 0 0 0 13.715837,7.8988798 Z m -1.715071,3.1015607 a 0.99956087,0.99956087 0 0 0 -1.001097,1.001098 0.99956087,0.99956087 0 0 0 1.001097,0.998024 0.99956087,0.99956087 0 0 0 0.998025,-0.998024 0.99956087,0.99956087 0 0 0 -0.998025,-1.001098 z m -4.4987911,1.647511 a 0.25027407,0.25027407 0 0 0 -0.1811802,0.426847 c 1.5292812,1.581486 3.4332073,2.748409 5.2235123,3.356436 1.753455,0.595744 3.41171,0.666374 4.518752,-0.03071 a 0.99956087,0.99956087 0 0 0 0.437597,0.101338 0.99956087,0.99956087 0 0 0 0.99956,-1.001098 0.99956087,0.99956087 0 0 0 -0.99956,-0.99956 0.99956087,0.99956087 0 0 0 -1.001097,0.99956 0.99956087,0.99956087 0 0 0 0.165825,0.548148 c -0.913576,0.485194 -2.366088,0.449877 -3.961393,-0.09213 -1.707392,-0.578847 -3.5529702,-1.710455 -5.0239079,-3.22899 a 0.25027407,0.25027407 0 0 0 -0.1781082,-0.07984 z m -1.0026311,2.353803 a 0.50054816,0.50054816 0 0 1 0.5005476,0.499012 0.50054816,0.50054816 0 0 1 -0.5005476,0.500548 0.50054816,0.50054816 0 0 1 -0.4990134,-0.500548 0.50054816,0.50054816 0 0 1 0.4990134,-0.499012 z m 11.0013122,0 a 0.50054816,0.50054816 0 0 1 0.499011,0.499012 0.50054816,0.50054816 0 0 1 -0.499011,0.500548 0.50054816,0.50054816 0 0 1 -0.500549,-0.500548 0.50054816,0.50054816 0 0 1 0.500549,-0.499012 z m -8.2728654,0.74468 a 0.25027407,0.25027407 0 0 0 -0.219565,0.319369 c 0,0 0.1949984,0.718577 0.655625,1.443298 C 10.124479,18.232288 10.886049,19 12.000766,19 c 1.467866,0 2.31849,-1.627548 2.31849,-1.627548 a 0.25027407,0.25027407 0 1 0 -0.437595,-0.242597 c 0,0 -0.806098,1.371134 -1.882431,1.371134 -0.884404,0 -1.498572,-0.608027 -1.913138,-1.259048 -0.4145632,-0.65102 -0.5957434,-1.306645 -0.5957434,-1.306645 a 0.25027407,0.25027407 0 0 0 -0.2364553,-0.188859 0.25027407,0.25027407 0 0 0 -0.026103,0 z"
     fill="#ffffff"
     id="path13928"
     style="fill:#9feaf9;fill-opacity:1;stroke-width:1.53542" />
</svg>

<svg xmlns="http://www.w3.org/2000/svg" xmlns:xlink="http://www.w3.org/1999/xlink" width="24" height="24" fill="none"><defs><radialGradient id="a" cx="0" cy="0" r="1" gradientTransform="matrix(0 22 -22 0 12 1)" gradientUnits="userSpaceOnUse"><stop offset="0" stop-color="#8FC8FF" style="stop-color:#373a4b;stop-opacity:1"/><stop offset="1" stop-color="#0056A8" style="stop-color:#2b2e3a;stop-opacity:1"/></radialGradient><radialGradient id="b" cx="0" cy="0" r="1" gradientTransform="matrix(0 22 -22 0 12 1)" gradientUnits="userSpaceOnUse"><stop offset="0" stop-color="#8FC8FF" style="stop-color:#f6f6f6;stop-opacity:1"/><stop offset="1" stop-color="#0056A8" style="stop-color:#cfcfcf;stop-opacity:1"/></radialGradient><radialGradient xlink:href="#a" id="c" cx=".179" cy="-1.748" r="1" fx=".179" fy="-1.748" gradientTransform="matrix(0 90.05947 -90.00681 0 -107.37 -11.19)" gradientUnits="userSpaceOnUse"/></defs><path d="M50 5C9.09 5 5 25.455 5 50c0 32.727 12.273 45 45 45 32.727 0 45-12.273 45-45 0-24.545-4.09-45-45-45Z" style="font-variation-settings:normal;display:inline;opacity:1;vector-effect:none;fill:url(#c);fill-opacity:1;stroke-width:4.56656;stroke-linecap:butt;stroke-linejoin:miter;stroke-miterlimit:4;stroke-dasharray:none;stroke-dashoffset:0;stroke-opacity:1;-inkscape-stroke:none;stop-color:#000;stop-opacity:1" transform="matrix(.24444 0 0 .24444 -.222 -.222)"/><path fill="#fff" d="M12 5a1 1 0 0 0-1 1.001A1 1 0 0 0 12 7a1 1 0 0 0 .914-.597c1.201.857 1.8 2.523 1.996 4.291.215 1.904-.04 3.906-.397 4.978a.25.25 0 0 0 .476.158c.391-1.177.642-3.207.419-5.192-.217-1.935-.89-3.848-2.42-4.782a1 1 0 0 0-.987-.853Zm0 .5a.5.5 0 0 1 .5.466.25.25 0 0 0-.002.061.5.5 0 0 1-.497.473.5.5 0 0 1-.5-.5.5.5 0 0 1 .5-.5zm3.67 2.235a3.593 3.593 0 0 0-.445.015.25.25 0 1 0 .05.499c1.045-.108 1.854.3 2.15 1.029.295.727.1 1.874-1.116 3.312a.25.25 0 1 0 .382.322c1.284-1.517 1.588-2.859 1.198-3.823-.344-.845-1.204-1.33-2.22-1.356Zm-6.978.015c-1.218.021-2.05.4-2.506 1.016-.606.823-.464 1.981.204 3.02a.25.25 0 0 0 .421-.27c-.596-.926-.672-1.842-.223-2.453.452-.611 1.504-1.007 3.374-.716a.25.25 0 1 0 .076-.494 7.87 7.87 0 0 0-1.346-.102Zm5.024.149a.25.25 0 0 0-.03 0 .25.25 0 0 0-.042.01 13.3 13.3 0 0 0-5.34 2.657c-1.475 1.228-2.519 2.728-2.55 4.27a1 1 0 0 0-.254.665 1 1 0 0 0 1 1 1 1 0 0 0 .999-1A1 1 0 0 0 6.5 14.5a1 1 0 0 0-.218.024c.155-1.222 1.044-2.495 2.34-3.576a12.865 12.865 0 0 1 5.134-2.555.25.25 0 0 0-.041-.494ZM12 11A1 1 0 0 0 11 12.002 1 1 0 0 0 12 13a1 1 0 0 0 .999-.998A1 1 0 0 0 12 11zm-4.499 1.648a.25.25 0 0 0-.181.427c1.53 1.581 3.433 2.748 5.223 3.356 1.754.596 3.412.667 4.52-.03a1 1 0 0 0 .437.1 1 1 0 0 0 1-1 1 1 0 0 0-1-1 1 1 0 0 0-1.001 1 1 1 0 0 0 .165.548c-.913.485-2.366.45-3.961-.092-1.707-.58-3.553-1.71-5.024-3.23a.25.25 0 0 0-.178-.079zm-1.003 2.354a.5.5 0 0 1 .5.499.5.5 0 0 1-.5.5.5.5 0 0 1-.499-.5.5.5 0 0 1 .5-.5zm11.002 0A.5.5 0 0 1 18 15.5a.5.5 0 0 1-.5.5.5.5 0 0 1-.5-.5.5.5 0 0 1 .5-.5zm-8.273.744a.25.25 0 0 0-.22.32s.195.718.656 1.443C10.124 18.232 10.886 19 12 19c1.468 0 2.318-1.628 2.318-1.628a.25.25 0 1 0-.437-.242s-.806 1.371-1.883 1.371c-.884 0-1.498-.608-1.913-1.26a5.422 5.422 0 0 1-.596-1.306.25.25 0 0 0-.236-.189.25.25 0 0 0-.026 0z" style="fill:#9feaf9;fill-opacity:1;stroke-width:1.53542"/></svg>
